assets/svg/icon_profile_hate.svg

<svg width="20" height="20" viewBox="0 0 20 20" fill="none" xmlns="http://www.w3.org/2000/svg">
<path d="M7.33398 10.0007L8.66732 9.00065L7.33398 8.00065M12.6673 10.0007L11.334 9.00065L12.6673 8.00065M12.0007 12.6673L11.334 12.0007L10.6673 12.6673L10.0007 12.0007L9.33398 12.6673L8.66732 12.0007L8.00065 12.6673M16.6673 10.0007C16.6673 13.6825 13.6825 16.6673 10.0007 16.6673C6.31875 16.6673 3.33398 13.6825 3.33398 10.0007C3.33398 6.31875 6.31875 3.33398 10.0007 3.33398C13.6825 3.33398 16.6673 6.31875 16.6673 10.0007Z" stroke="#494949" stroke-width="1.2" stroke-linecap="round" stroke-linejoin="round"/>
</svg>

<svg xmlns="http://www.w3.org/2000/svg" width="20" height="20" fill="none"><path stroke="#494949" stroke-linecap="round" stroke-linejoin="round" stroke-width="1.2" d="m7.334 10 1.333-1-1.333-1m5.333 2-1.333-1 1.333-1m-.666 4.667-.667-.666-.667.666-.666-.666-.667.666-.667-.666-.666.666m8.666-2.666a6.667 6.667 0 1 1-13.333 0 6.667 6.667 0 0 1 13.333 0"/></svg>
